src/WeatherTwentyOne/Resources/Images/solid_umbrella.svg

<svg width="18" height="18" viewBox="0 0 18 18" fill="none" xmlns="http://www.w3.org/2000/svg">
<path d="M17.99 8.89071C17.6287 6.88427 16.6142 5.05354 15.1045 3.68345C13.5948 2.31337 11.6745 1.48079 9.64252 1.31529V0H8.3568V1.31529C6.32481 1.48079 4.40452 2.31337 2.8948 3.68345C1.38508 5.05354 0.370622 6.88427 0.00930376 8.89071C-0.0115025 9.01168 0.00275608 9.13607 0.0503944 9.24919C0.0980328 9.36231 0.17706 9.45943 0.278135 9.52907C0.37921 9.5987 0.498108 9.63795 0.620777 9.64216C0.743446 9.64638 0.864758 9.61539 0.970375 9.55286C1.4428 9.22457 1.99676 9.03324 2.57109 9C3.11696 9.01322 3.64986 9.16913 4.11677 9.45221C4.58369 9.7353 4.96836 10.1357 5.23252 10.6136C5.29383 10.7037 5.37625 10.7775 5.47261 10.8285C5.56898 10.8795 5.67635 10.9062 5.78538 10.9062C5.8944 10.9062 6.00178 10.8795 6.09814 10.8285C6.1945 10.7775 6.27692 10.7037 6.33823 10.6136C6.55385 10.2351 6.84386 9.90422 7.19077 9.64083C7.53769 9.37744 7.93433 9.18701 8.3568 9.081V15.1071C8.3568 15.5334 8.18748 15.9422 7.88608 16.2436C7.58468 16.545 7.1759 16.7143 6.74966 16.7143C6.32342 16.7143 5.91464 16.545 5.61324 16.2436C5.31184 15.9422 5.14252 15.5334 5.14252 15.1071V14.7857H3.8568V15.1071C3.8568 15.8744 4.16159 16.6102 4.7041 17.1527C5.24662 17.6952 5.98243 18 6.74966 18C7.51689 18 8.2527 17.6952 8.79522 17.1527C9.33774 16.6102 9.64252 15.8744 9.64252 15.1071V9.08036C10.0651 9.18651 10.4618 9.37715 10.8087 9.64076C11.1557 9.90438 11.4456 10.2355 11.6611 10.6142C11.718 10.7101 11.7989 10.7896 11.8958 10.8448C11.9928 10.9 12.1024 10.929 12.2139 10.929C12.3255 10.929 12.4351 10.9 12.532 10.8448C12.629 10.7896 12.7099 10.7101 12.7668 10.6142C13.0309 10.1362 13.4155 9.73569 13.8824 9.45249C14.3494 9.16929 14.8823 9.01329 15.4282 9C16.0026 9.03324 16.5565 9.22457 17.0289 9.55286C17.1346 9.61558 17.256 9.64673 17.3787 9.64261C17.5015 9.63849 17.6206 9.59927 17.7217 9.5296C17.8229 9.45994 17.902 9.36274 17.9497 9.24951C17.9973 9.13628 18.0116 9.01177 17.9907 8.89071H17.99ZM2.57109 7.71429C2.24418 7.71427 1.91891 7.76037 1.60488 7.85121C2.04127 6.63566 2.76555 5.54387 3.7158 4.66919C4.66604 3.79452 5.81397 3.16298 7.06145 2.82857C5.78715 4.47141 5.09799 6.49275 5.1033 8.57186C4.37494 8.01826 3.48595 7.7172 2.57109 7.71429ZM8.99966 7.71429C8.05185 7.71866 7.13321 8.04254 6.39223 8.63357C6.41602 7.20643 6.78309 4.46143 8.99966 2.73471C11.2047 4.45564 11.5769 7.20257 11.6045 8.63164C10.864 8.04185 9.94636 7.71869 8.99966 7.71429ZM15.4282 7.71429C14.5134 7.71701 13.6245 8.01785 12.896 8.57121C12.9013 6.4921 12.2122 4.47076 10.9379 2.82793C12.1854 3.1624 13.3334 3.79403 14.2836 4.66883C15.2339 5.54362 15.9581 6.63554 16.3944 7.85121C16.0804 7.76037 15.7551 7.71427 15.4282 7.71429Z" fill="#3E8EED"/>
</svg>

<svg width="18" height="18" fill="none" xmlns="http://www.w3.org/2000/svg">
    <path
        d="M17.99 8.89a9.244 9.244 0 00-8.347-7.575V0H8.357v1.315A9.244 9.244 0 00.009 8.891a.643.643 0 00.961.662A3.121 3.121 0 012.571 9a3.127 3.127 0 012.662 1.614.669.669 0 001.105 0A3.227 3.227 0 018.357 9.08v6.026a1.607 1.607 0 11-3.214 0v-.321H3.857v.321a2.893 2.893 0 105.786 0V9.08a3.227 3.227 0 012.018 1.534.643.643 0 001.106 0A3.128 3.128 0 0115.428 9a3.12 3.12 0 011.6.553.643.643 0 00.963-.662h-.001zM2.571 7.715c-.327 0-.652.046-.966.137A7.998 7.998 0 017.06 2.83a9.332 9.332 0 00-1.958 5.743 4.207 4.207 0 00-2.532-.858zm6.429 0a4.213 4.213 0 00-2.608.92c.024-1.428.391-4.173 2.608-5.9 2.205 1.722 2.577 4.469 2.604 5.898A4.212 4.212 0 009 7.714zm6.428 0a4.207 4.207 0 00-2.532.857 9.332 9.332 0 00-1.958-5.743 7.997 7.997 0 015.456 5.023 3.476 3.476 0 00-.966-.137z"
        fill="#3E8EED" />
</svg>
